X:1
T:Fox on the Prowl
L:1/8
M:4/4
K:D
V:1
de ^fd eA A/A/A | BA FA DA FB | AB de fa a/a/a | bf af{a} fe ec | 
de fd eA A/A/A | BA FA DA FB | {d} BA FA df af |1 ed ef d2 (3ABc :|2 ed ef d3 e ||
|: fg af dd/d/ de | fg af eA A/A/A | BA FA de fa | bf af{a} fe e2 | 
fa a/a/a bf af | de fd eA A/A/A |1{d} BA FA df af | ed ef d3 e :|2 {d} BA FA df af | ed ef d4 |] 


